svgs/regular/hashtag-lock.svg

<svg xmlns="http://www.w3.org/2000/svg" viewBox="0 0 576 512"><!--! Font Awesome Pro 6.1.1 by @fontawesome - https://fontawesome.com License - https://fontawesome.com/license (Commercial License) Copyright 2022 Fonticons, Inc. --><path d="M188.7 32.47C201.7 35.07 210.1 47.71 207.5 60.71L192.5 136H303.5L320.5 51.3C323.1 38.3 335.7 29.87 348.7 32.47C361.7 35.07 370.1 47.71 367.5 60.71L352.5 136H424C437.3 136 448 146.8 448 160C448 160.4 447.1 160.8 447.1 161.1C428 163.1 409.8 172.1 394.7 184H342.9L287.5 460.7C284.9 473.7 272.3 482.1 259.3 479.5C246.3 476.9 237.9 464.3 240.5 451.3L255.5 376L144.5 376L127.5 460.7C124.9 473.7 112.3 482.1 99.29 479.5C86.3 476.9 77.87 464.3 80.47 451.3L95.53 376L23.1 375.1C10.74 375.1-.0003 365.3 0 351.1C.0003 338.7 10.75 327.1 24 327.1L105.1 328L133.9 184H56C42.75 184 32 173.3 32 160C32 146.8 42.75 136 56 136H143.5L160.5 51.3C163.1 38.3 175.7 29.87 188.7 32.47L188.7 32.47zM182.9 184L154.1 328L265.1 328L293.9 184H182.9zM464 192C508.2 192 544 227.8 544 272V320C561.7 320 576 334.3 576 352V480C576 497.7 561.7 512 544 512H384C366.3 512 352 497.7 352 480V352C352 334.3 366.3 320 384 320V272C384 227.8 419.8 192 464 192V192zM464 240C446.3 240 432 254.3 432 272V320H496V272C496 254.3 481.7 240 464 240z"/></svg>

<svg xmlns="http://www.w3.org/2000/svg" viewBox="0 0 576 512"><!--! Font Awesome Pro 6.5.1 by @fontawesome - https://fontawesome.com License - https://fontawesome.com/license (Commercial License) Copyright 2023 Fonticons, Inc. --><path d="M188.7 32.5c13 2.6 21.4 15.2 18.8 28.2L192.5 136h111l16.9-84.7c2.6-13 15.2-21.4 28.2-18.8s21.4 15.2 18.8 28.2L352.5 136H424c13.3 0 24 10.7 24 24c0 .4 0 .8 0 1.1c-19.9 2.9-38.2 11-53.3 22.9H342.9L287.5 460.7c-2.6 13-15.2 21.4-28.2 18.8s-21.4-15.2-18.8-28.2L255.5 376l-111 0-16.9 84.7c-2.6 13-15.2 21.4-28.2 18.8s-21.4-15.2-18.8-28.2L95.5 376 24 376c-13.3 0-24-10.7-24-24s10.7-24 24-24l81.1 0 28.8-144H56c-13.3 0-24-10.7-24-24s10.7-24 24-24h87.5l16.9-84.7c2.6-13 15.2-21.4 28.2-18.8zM182.9 184L154.1 328l111 0 28.8-144h-111zM464 240c-17.7 0-32 14.3-32 32v48h64V272c0-17.7-14.3-32-32-32zm-80 32c0-44.2 35.8-80 80-80s80 35.8 80 80v48c17.7 0 32 14.3 32 32V480c0 17.7-14.3 32-32 32H384c-17.7 0-32-14.3-32-32V352c0-17.7 14.3-32 32-32V272z"/></svg>
